src/assets/svg/tutorial/sound.svg

<svg width="50" height="42" viewBox="0 0 50 42" fill="none" xmlns="http://www.w3.org/2000/svg">
<g filter="url(#filter0_d_4839_787)">
<path d="M4 15.7078C4 14.0509 5.34315 12.7078 7 12.7078H15.6667V26.7302H7C5.34315 26.7302 4 25.3871 4 23.7302V15.7078Z" fill="black"/>
<path d="M29.2002 32.2307C29.2002 34.8332 26.1132 36.2013 24.1852 34.4533L15.6669 26.7303L15.6669 12.7079L24.1466 4.74533C26.062 2.94676 29.2002 4.30483 29.2002 6.9323L29.2002 32.2307Z" fill="black"/>
<path fill-rule="evenodd" clip-rule="evenodd" d="M33.8667 25.3722C36.7583 25.0085 39 22.4201 39 19.2811C39 16.142 36.7583 13.5536 33.8667 13.1899V25.3722Z" fill="black"/>
<path fill-rule="evenodd" clip-rule="evenodd" d="M46 19.2809C46 25.8443 40.7014 31.2564 33.8667 32.0169V29.4698C39.2481 28.2099 43.2001 24.0273 43.2001 19.0618C43.2001 14.0963 39.2481 9.91378 33.8667 8.65389V6.54492C40.7014 7.30537 46 12.7175 46 19.2809Z" fill="black"/>
</g>
<defs>
<filter id="filter0_d_4839_787" x="0" y="1.92627" width="50" height="39.3103" filterUnits="userSpaceOnUse" color-interpolation-filters="sRGB">
<feFlood flood-opacity="0" result="BackgroundImageFix"/>
<feColorMatrix in="SourceAlpha" type="matrix" values="0 0 0 0 0 0 0 0 0 0 0 0 0 0 0 0 0 0 127 0" result="hardAlpha"/>
<feOffset dy="2"/>
<feGaussianBlur stdDeviation="2"/>
<feComposite in2="hardAlpha" operator="out"/>
<feColorMatrix type="matrix" values="0 0 0 0 0 0 0 0 0 0 0 0 0 0 0 0 0 0 0.5 0"/>
<feBlend mode="normal" in2="BackgroundImageFix" result="effect1_dropShadow_4839_787"/>
<feBlend mode="normal" in="SourceGraphic" in2="effect1_dropShadow_4839_787" result="shape"/>
</filter>
</defs>
</svg>

<svg width="50" height="42" fill="none" xmlns="http://www.w3.org/2000/svg"><g filter="url(#a)" fill="#000"><path d="M4 15.708a3 3 0 0 1 3-3h8.667V26.73H7a3 3 0 0 1-3-3v-8.022z"/><path d="M29.2 32.23c0 2.603-3.087 3.971-5.015 2.223l-8.518-7.723V12.708l8.48-7.963c1.915-1.798 5.053-.44 5.053 2.187v25.299z"/><path fill-rule="evenodd" clip-rule="evenodd" d="M33.867 25.372C36.758 25.01 39 22.42 39 19.282c0-3.14-2.242-5.728-5.133-6.092v12.182z"/><path fill-rule="evenodd" clip-rule="evenodd" d="M46 19.28c0 6.564-5.299 11.976-12.133 12.737V29.47c5.381-1.26 9.333-5.443 9.333-10.408 0-4.966-3.952-9.148-9.333-10.408v-2.11C40.7 7.306 46 12.718 46 19.282z"/></g><defs><filter id="a" x="0" y="1.926" width="50" height="39.31" filterUnits="userSpaceOnUse" color-interpolation-filters="sRGB"><feFlood flood-opacity="0" result="BackgroundImageFix"/><feColorMatrix in="SourceAlpha" values="0 0 0 0 0 0 0 0 0 0 0 0 0 0 0 0 0 0 127 0" result="hardAlpha"/><feOffset dy="2"/><feGaussianBlur stdDeviation="2"/><feComposite in2="hardAlpha" operator="out"/><feColorMatrix values="0 0 0 0 0 0 0 0 0 0 0 0 0 0 0 0 0 0 0.5 0"/><feBlend in2="BackgroundImageFix" result="effect1_dropShadow_4839_787"/><feBlend in="SourceGraphic" in2="effect1_dropShadow_4839_787" result="shape"/></filter></defs></svg>
